!!!!SEGMENT: pl-sa--374-a-viii-14--004_anonim--witaj-o-rano-przebllogosllawiona.krn
!!!cenid: 17xx:1236
!!!COM: Anonim
!!!COM-rismID: pe30004985
!!!CDT:
!!!CNT:
!!!OTL: Witaj o rano przebłogosławiona
!!!PDT:
!!!AGN: Sacred
!!!SMS-siglum: PL-SA
!!!SMS-shelfmark: 374/A VIII 14
!!!SMS-shelfwork: 004 W
!!!SMS-variant:
!!!SMS-altvar:
!!!NIFC-rismSourceID: 1001077363
!!!NIFC-rismChildID: 1001077363
!!!NIFC-islandoraID:
!!!URL-pdf-islandora:
!!!URL-scan: https://bc.bdsandomierz.pl/dlibra/publication/1678/edition/1646/content @EN{Scan in the Sandomierz Diocese Digital Library} @PL{Skany w portalu Cyfrowa Biblioteka Diecezjalna w Sandomierzu}
!!!ONB-nifc: Planctus 4us
!!!AIN: 1 soprn
!!!key:
**kern	**text	**text	**text	**text
*clefC1	*	*	*	*
*I"Solo Canto.	*	*	*	*
*I'S	*	*	*	*
*ICvox	*	*	*	*
*Isoprn	*	*	*	*
*k[b-]	*	*	*	*
*g:	*	*	*	*
*M4/4	*	*	*	*
*met(c)	*	*	*	*
=1	=1	=1	=1	=1
*2\right	*	*	*	*
!!LO:TX:t=P:problem:brak kresek taktowych	!	!	!	!
!LO:TX:a:t=Planctus 4t(us)&colon;	!	!	!	!
2dd\	Wi-	Tyś	Niech	Z Krwią
4dd\	-tay	na-	się	rę-
4cc\	o	-sża	wy-	-ki
=2	=2	=2	=2	=2
2b-\	ra-	tar-	-le-	two-
2a\	-no	-cża,	-wa	-iey
=3	=3	=3	=3	=3
4.b-\	prze-	tyś	na	Je-
8a\	-bło-	na-	wszy-	-zy
8.b-\	-go-	-sża	-tko	po-
(16a\	-sła-	o-	stwo-	-cie-
8.b-\L	.	.	.	.
16a\J)	.	.	.	.
=4	=4	=4	=4	=4
2b-\	-wio-	-bro-	-rze-	-sże-
2a\	-na	-na	-nie	-nie
=5:|!|:	=5:|!|:	=5:|!|:	=5:|!|:	=5:|!|:
2g/	niech	Kto-	Nie-	Nie-
4a\	two-	-rzyć	-chay	-chay
4cc\	-iey	się	wy-	y
=6	=6	=6	=6	=6
2b-\	mo-	te-	-pły-	po-
2a\	-cy	-raz	-wa	-kus
=7	=7	=7	=7	=7
4.ee-X\	za-	po-	na	ztąd
8dd\	-wsze	-kor-	nas	ma-
!LO:TX:t=P:problem=nieczytelne 2 sylaby w 3. wersie	!	!	!	!
8ee-\L	do-	-nie	w do-	-my
(8dd\J	.	.	.	.
(8cc\L)	-zna-	kła-	.	zwy-
8b-\J)	.	.	bry	.
=8	=8	=8	=8	=8
2a\	-wa-	-nia-	mę-	-cię-
2g/	-my	-my	-stwo	-stwo.
=:|!	=:|!	=:|!	=:|!	=:|!
*-	*-	*-	*-	*-
!!!ENC: Andrzej Borzym
!!!END: 2020-11-22
!!!ENC: Natalia Wrzos
!!!END: 2022-01-07
!!!YEC: Copyright 2022 Narodowy Instytut Fryderyka Chopina (https://polishscores.org)
!!!YEM: License CC-BY-4.0 (https://creativecommons.org/licenses/by/4.0)
